!!!OTL: Trostlied
!!!ARE: Europa, Mitteleuropa, Deutschland
!!!SCT: A0637
!!!YEM: Copyright 1995, estate of Helmut Schaffrath.
**kern
*ICvox
*Ivox
*M4/1
*k[f#]
*e:
{0e
1gn
1gn
=1
1a
1ccn
1b
1b
=2
0a
1r
1ee
=3
1ddn
1ccn
0b
=4
1r}
{1ccn
1b
1a
=5
1gn
2e
2fn
2gn
2a
1fn
=6
[0e
0e]}
=7
{0e
1gn
1gn
=8
1a
1ccn
1b
1b
=9
0a
1r
1ee
=10
1ddn
1ccn
0b
=11
1r}
{1ccn
1b
1a
=12
1gn
2e
2fn
2gn
2a
1fn
=13
[0e
0e]
=14
0r}
{0gn
=15
2a
1ccn
2b
1ccn
1ee
=16
1ddn
1ddn
0ccn
=17
1r}
{1ee
1ccn
1ccn
=18
1a
1ddn
1b
1b
=19
0gn
1r
1gn
=20
1b
1ccn
1ddn
1a
=21
0b
0a}
==
!!!AGN: Romanze, Ballade, Lied, religioeses Lied
!! Phryg. mit aeol. Schluss
!!    Forster I 1539 No. 102
!!!ONB: ESAC (Essen Associative Code) Database: ALTDEU
!!!AMT: simple quadruple
!!!AIN: vox
!!!EED: Helmut Schaffrath
!!!EEV: 1.0
*-
